X:19
T:Demi-tour - Chez mon p\'ere
C:Y. Dour 16
M:3/4
L:1/16
K:C
eefe d3c d2d2|e2fe d2c2 d4|e2fe d2c2 d4:|
|:eefe d2e2 c4|d2cB A3e e4|\
e2fe d2e2 c4|d2ed c2B2 A4:|
